!!!OTL: Shiliuqing
!!!ARE: Asia, China,ÿGuangxi Liuzhou
!! II, 489
!!!SCT: C1985
!!!YEM: Copyright 1995, estate of Helmut Schaffrath.
**kern
*ICvox
*Ivox
*M2/4
*k[b-e-a-d-]
*A-:
{8cc
8b-
8a-
8b-
=1
4cc
4b-
=2
2e-}
=3
{4cc
8b-
8a-
=4
8f
8e-
8f
8a-
=5
8b-
8a-
8f
8e-
=6
2e-}
=7
{8cc
8cc
8cc
8cc
=8
8cc
8b-
8a-
8b-
=9
4cc
4b-
=10
2e-}
=11
{4cc
8b-
8a-
=12
8f
8e-
8f
8a-
=13
8b-
8a-
8f
8e-
=14
4e-
8f
8a-
=15
8b-
8a-
8f
8e-
=16
2e-}
==
!!!AGN: Shange
!!!AMT: simple duple
!!!AIN: vox
!!!EED: Helmut Schaffrath
!!!EEV: 1.0
*-
